Sources/FrostedUI/Resources/Icons.xcassets/rewardDiamond32.imageset/reward-diamond-32.svg

<svg width="32" height="32" viewBox="0 0 32 32" fill="none" xmlns="http://www.w3.org/2000/svg" data-fui-icon="true">
  <path
    d="M20.8142 2.99261C22.181 2.99271 23.474 3.61383 24.3279 4.68109L29.4578 11.0942C30.8474 12.8312 30.7595 15.3229 29.2507 16.9575L19.3064 27.7299C17.5246 29.6601 14.4759 29.6601 12.6941 27.7299L2.74976 16.9575C1.24102 15.3229 1.15312 12.8312 2.54272 11.0942L7.67261 4.68109C8.52651 3.61383 9.81946 2.99272 11.1863 2.99261H20.8142ZM11.1863 4.49261C10.2751 4.49272 9.41373 4.90715 8.84448 5.61859L3.71362 12.0317C2.78748 13.1897 2.84653 14.8503 3.85229 15.9399L13.7957 26.7123C14.9835 27.9992 17.0169 27.9992 18.2048 26.7123L28.1482 15.9399C29.154 14.8503 29.213 13.1897 28.2869 12.0317L23.157 5.61859C22.5877 4.90703 21.7254 4.49271 20.8142 4.49261H11.1863ZM15.2097 8.03949C15.3529 7.1406 16.6466 7.1407 16.7898 8.03949L17.2449 10.8998C17.397 11.8556 18.1437 12.6073 19.0984 12.7661L22.0037 13.2485C22.9028 13.398 22.8923 14.6947 21.991 14.8295L19.1345 15.2553C18.1619 15.4007 17.3959 16.1616 17.2439 17.1332L16.7908 20.0346C16.6494 20.9358 15.3512 20.9358 15.2097 20.0346L14.7556 17.1332C14.6035 16.1615 13.8377 15.4006 12.865 15.2553L10.0095 14.8295C9.108 14.6948 9.09764 13.398 9.99683 13.2485L12.9021 12.7661C13.8566 12.6072 14.6025 11.8554 14.7546 10.8998L15.2097 8.03949Z"
    fill="currentColor"
  />
</svg>

<svg xmlns="http://www.w3.org/2000/svg" width="32" height="32" fill="none" data-fui-icon="true" viewBox="0 0 32 32"><path fill="currentColor" d="M20.814 2.993a4.5 4.5 0 0 1 3.514 1.688l5.13 6.413a4.5 4.5 0 0 1-.207 5.864L19.306 27.73a4.5 4.5 0 0 1-6.612 0L2.75 16.958a4.5 4.5 0 0 1-.207-5.864l5.13-6.413a4.5 4.5 0 0 1 3.513-1.688zm-9.628 1.5a3 3 0 0 0-2.342 1.126l-5.13 6.413a3 3 0 0 0 .138 3.908l9.944 10.772a3 3 0 0 0 4.409 0l9.943-10.772a3 3 0 0 0 .139-3.908l-5.13-6.413a3 3 0 0 0-2.343-1.126zm4.024 3.546c.143-.898 1.437-.898 1.58 0l.455 2.86a2.25 2.25 0 0 0 1.853 1.867l2.906.482c.899.15.888 1.447-.013 1.582l-2.857.425a2.25 2.25 0 0 0-1.89 1.878l-.453 2.902c-.142.9-1.44.9-1.581 0l-.454-2.902a2.25 2.25 0 0 0-1.891-1.878l-2.856-.426c-.901-.134-.911-1.431-.012-1.58l2.905-.483a2.25 2.25 0 0 0 1.853-1.866z"/></svg>
